X: 2
T: Almost, The
Z: JACKB
S: https://thesession.org/tunes/2408#setting23374
R: reel
M: 4/4
L: 1/8
K: Bmin
|:B2>d2 cA B2|DddA dAFA|B2>d2 cA B2|DddA BF F2|
B2>d2 cA B2|DddA dAFA|B2>d2 cA B2|DddA BF F2||
|:B2>d2 eB d2|BddA dAFA|EBeB dc B2|DddA BFF2|
B2>d2 eB d2|BddA dAFA|EBeB dc B2|Ddd(f f)edc||
